src/main/resources/icons/RIcons/icons/render.svg

<svg width="16" height="16" viewBox="0 0 16 16" fill="none" xmlns="http://www.w3.org/2000/svg">
<path fill-rule="evenodd" clip-rule="evenodd" d="M12.917 8H8V9H12.6586C12.7723 8.67837 12.8593 8.34415 12.917 8ZM8 12.917V10H12.1973C11.319 11.5183 9.79458 12.616 8 12.917ZM12.6586 5C11.9423 2.97354 10.1684 1.44674 8 1.08296V5H12.6586ZM12.917 6C12.9716 6.32521 13 6.65929 13 7H8V6H12.917ZM7 1C6.65929 1 6.32521 1.0284 6 1.08296V12.917C6.32521 12.9716 6.65929 13 7 13V1ZM1 7C1 5.223 1.7725 3.62643 3 2.52779V11.4722C1.7725 10.3736 1 8.777 1 7ZM5 1.34141C4.65069 1.46488 4.31622 1.61977 4 1.80269V12.1973C4.31622 12.3802 4.65069 12.5351 5 12.6586V1.34141Z" fill="#59A869"/>
<path fill-rule="evenodd" clip-rule="evenodd" d="M14 12.5C14 13.8807 12.8807 15 11.5 15C10.1193 15 9 13.8807 9 12.5C9 11.6821 9.39278 10.9559 10 10.4998V12L10.0597 12.0796C10.0208 12.213 10 12.354 10 12.5C10 13.3284 10.6716 14 11.5 14C12.3284 14 13 13.3284 13 12.5H14Z" fill="#59A869"/>
</svg>

<svg width="16" height="16" viewBox="0 0 16 16" fill="none" xmlns="http://www.w3.org/2000/svg"><rect id="frame" width="16" height="16" fill="none"/><path fill-rule="evenodd" clip-rule="evenodd" d="M12.917 8H8v1h4.659c.113-.322.2-.656.258-1zM8 12.917V10h4.197A6.005 6.005 0 0 1 8 12.917zM12.659 5A6.009 6.009 0 0 0 8 1.083V5h4.659zm.258 1c.055.325.083.66.083 1H8V6h4.917zM7 1c-.34 0-.675.028-1 .083v11.834c.325.055.66.083 1 .083V1zM1 7c0-1.777.772-3.374 2-4.472v8.944A5.985 5.985 0 0 1 1 7zm4-5.659c-.35.124-.684.279-1 .462v10.394c.316.183.65.338 1 .462V1.34z" fill="#59A869"/><path fill-rule="evenodd" clip-rule="evenodd" d="M14 12.5a2.5 2.5 0 1 1-4-2V12l.06.08A1.5 1.5 0 0 0 11.5 14a1.5 1.5 0 0 0 1.5-1.5h1z" fill="#59A869"/></svg>
